src/lib/packages/icons/src/assets/line/grid-square-circle.svg

<svg xmlns="http://www.w3.org/2000/svg" width="24" height="24" fill="none"><path fill="currentColor" d="M17 20.75A3.755 3.755 0 0 1 13.25 17 3.755 3.755 0 0 1 17 13.25 3.755 3.755 0 0 1 20.75 17 3.755 3.755 0 0 1 17 20.75Zm0-6A2.253 2.253 0 0 0 14.75 17c0 1.241 1.01 2.25 2.25 2.25s2.25-1.009 2.25-2.25-1.01-2.25-2.25-2.25Zm1.5-4h-3c-1.409 0-2.25-.841-2.25-2.25v-3c0-1.409.841-2.25 2.25-2.25h3c1.409 0 2.25.841 2.25 2.25v3c0 1.409-.841 2.25-2.25 2.25Zm-3-6c-.589 0-.75.161-.75.75v3c0 .589.161.75.75.75h3c.589 0 .75-.161.75-.75v-3c0-.589-.161-.75-.75-.75h-3Zm-7 6h-3c-1.409 0-2.25-.841-2.25-2.25v-3c0-1.409.841-2.25 2.25-2.25h3c1.409 0 2.25.841 2.25 2.25v3c0 1.409-.841 2.25-2.25 2.25Zm-3-6c-.589 0-.75.161-.75.75v3c0 .589.161.75.75.75h3c.589 0 .75-.161.75-.75v-3c0-.589-.161-.75-.75-.75h-3Zm3 16h-3c-1.409 0-2.25-.841-2.25-2.25v-3c0-1.409.841-2.25 2.25-2.25h3c1.409 0 2.25.841 2.25 2.25v3c0 1.409-.841 2.25-2.25 2.25Zm-3-6c-.589 0-.75.161-.75.75v3c0 .589.161.75.75.75h3c.589 0 .75-.161.75-.75v-3c0-.589-.161-.75-.75-.75h-3Z"/></svg>

<svg width="24" height="24" viewBox="0 0 24 24" fill="none" xmlns="http://www.w3.org/2000/svg">
<path d="M17 20.75C14.933 20.75 13.25 19.068 13.25 17C13.25 14.932 14.933 13.25 17 13.25C19.067 13.25 20.75 14.932 20.75 17C20.75 19.068 19.067 20.75 17 20.75ZM17 14.75C15.76 14.75 14.75 15.759 14.75 17C14.75 18.241 15.76 19.25 17 19.25C18.24 19.25 19.25 18.241 19.25 17C19.25 15.759 18.24 14.75 17 14.75ZM18.5 10.75H15.5C14.091 10.75 13.25 9.909 13.25 8.5V5.5C13.25 4.091 14.091 3.25 15.5 3.25H18.5C19.909 3.25 20.75 4.091 20.75 5.5V8.5C20.75 9.909 19.909 10.75 18.5 10.75ZM15.5 4.75C14.911 4.75 14.75 4.911 14.75 5.5V8.5C14.75 9.089 14.911 9.25 15.5 9.25H18.5C19.089 9.25 19.25 9.089 19.25 8.5V5.5C19.25 4.911 19.089 4.75 18.5 4.75H15.5ZM8.5 10.75H5.5C4.091 10.75 3.25 9.909 3.25 8.5V5.5C3.25 4.091 4.091 3.25 5.5 3.25H8.5C9.909 3.25 10.75 4.091 10.75 5.5V8.5C10.75 9.909 9.909 10.75 8.5 10.75ZM5.5 4.75C4.911 4.75 4.75 4.911 4.75 5.5V8.5C4.75 9.089 4.911 9.25 5.5 9.25H8.5C9.089 9.25 9.25 9.089 9.25 8.5V5.5C9.25 4.911 9.089 4.75 8.5 4.75H5.5ZM8.5 20.75H5.5C4.091 20.75 3.25 19.909 3.25 18.5V15.5C3.25 14.091 4.091 13.25 5.5 13.25H8.5C9.909 13.25 10.75 14.091 10.75 15.5V18.5C10.75 19.909 9.909 20.75 8.5 20.75ZM5.5 14.75C4.911 14.75 4.75 14.911 4.75 15.5V18.5C4.75 19.089 4.911 19.25 5.5 19.25H8.5C9.089 19.25 9.25 19.089 9.25 18.5V15.5C9.25 14.911 9.089 14.75 8.5 14.75H5.5Z" fill="currentColor"/>
</svg>
